src/scalable/mimetypes/application-atom+xml.svg

<?xml version="1.0" encoding="UTF-8" standalone="no"?>
<svg
   xmlns:dc="http://purl.org/dc/elements/1.1/"
   xmlns:cc="http://creativecommons.org/ns#"
   xmlns:rdf="http://www.w3.org/1999/02/22-rdf-syntax-ns#"
   xmlns:svg="http://www.w3.org/2000/svg"
   xmlns="http://www.w3.org/2000/svg"
   xmlns:xlink="http://www.w3.org/1999/xlink"
   xmlns:sodipodi="http://sodipodi.sourceforge.net/DTD/sodipodi-0.dtd"
   xmlns:inkscape="http://www.inkscape.org/namespaces/inkscape"
   width="48px"
   height="48px"
   viewBox="0 0 48 48"
   version="1.1"
   id="svg21"
   sodipodi:docname="application-atom+xml.svg"
   inkscape:version="0.92.2 2405546, 2018-03-11">
  <metadata
     id="metadata25">
    <rdf:RDF>
      <cc:Work
         rdf:about="">
        <dc:format>image/svg+xml</dc:format>
        <dc:type
           rdf:resource="http://purl.org/dc/dcmitype/StillImage" />
      </cc:Work>
    </rdf:RDF>
  </metadata>
  <sodipodi:namedview
     pagecolor="#ffffff"
     bordercolor="#666666"
     borderopacity="1"
     objecttolerance="10"
     gridtolerance="10"
     guidetolerance="10"
     inkscape:pageopacity="0"
     inkscape:pageshadow="2"
     inkscape:window-width="1260"
     inkscape:window-height="817"
     id="namedview23"
     showgrid="false"
     inkscape:zoom="6.9532167"
     inkscape:cx="13.430593"
     inkscape:cy="33.450701"
     inkscape:window-x="585"
     inkscape:window-y="248"
     inkscape:window-maximized="0"
     inkscape:current-layer="svg21" />
  <!-- Generator: Sketch 41.2 (35397) - http://www.bohemiancoding.com/sketch -->
  <title
     id="title2">application-atom+xml</title>
  <desc
     id="desc4">Created with Sketch.</desc>
  <g
     id="g1185">
    <rect
       style="opacity:1;fill:#adc959;fill-opacity:1;stroke:none;stroke-width:0.92582005;stroke-linecap:round;stroke-linejoin:round;stroke-miterlimit:4;stroke-dasharray:none;stroke-opacity:0.05882353;paint-order:markers stroke fill"
       id="rect1181"
       width="36"
       height="40"
       x="6"
       y="4"
       ry="1.9047618"
       rx="2" />
    <path
       style="opacity:0.15;fill:url(#linearGradient1187);fill-opacity:1;stroke:none;stroke-width:0.92582005;stroke-linecap:round;stroke-linejoin:round;stroke-miterlimit:4;stroke-dasharray:none;stroke-opacity:0.05882353;paint-order:markers stroke fill"
       d="M 42,17.242188 A 40,40 0 0 1 23.494141,44 H 40 c 1.108,0 2,-0.849059 2,-1.904297 z"
       id="path1183"
       inkscape:connector-curvature="0" />
  </g>
  <defs
     id="defs11">
    <linearGradient
       x1="90.7002767%"
       y1="6.56534831%"
       x2="35.3271484%"
       y2="64.1438802%"
       id="linearGradient-1">
      <stop
         stop-color="#93DEF2"
         offset="0%"
         id="stop6" />
      <stop
         stop-color="#5ABADF"
         offset="100%"
         id="stop8" />
    </linearGradient>
    <linearGradient
       inkscape:collect="always"
       xlink:href="#linearGradient875"
       id="linearGradient1187"
       gradientUnits="userSpaceOnUse"
       x1="32.74707"
       y1="44"
       x2="32.74707"
       y2="17.242188" />
    <linearGradient
       inkscape:collect="always"
       id="linearGradient875">
      <stop
         style="stop-color:#000000;stop-opacity:1;"
         offset="0"
         id="stop871" />
      <stop
         style="stop-color:#000000;stop-opacity:0;"
         offset="1"
         id="stop873" />
    </linearGradient>
  </defs>
  <g
     id="Page-1"
     stroke="none"
     stroke-width="1"
     fill="none"
     fill-rule="evenodd">
    <g
       id="application-atom+xml">
      <circle
         id="Oval-287"
         fill="#FFFFFF"
         cx="24"
         cy="30.5"
         r="2" />
      <path
         d="M19.8461735,27.0329075 C19.8702761,26.9946364 19.9410746,26.8973399 20.0584111,26.7606087 C20.2657614,26.5189851 20.520106,26.2746226 20.8207684,26.0459634 C21.681861,25.3910865 22.7319704,25 24,25 C25.2680296,25 26.318139,25.3910865 27.1792316,26.0459634 C27.479894,26.2746226 27.7342386,26.5189851 27.9415889,26.7606087 C28.0589254,26.8973399 28.1297239,26.9946364 28.1538265,27.0329075 C28.4481432,27.5002362 29.0655788,27.6404902 29.5329075,27.3461735 C30.0002362,27.0518568 30.1404902,26.4344212 29.8461735,25.9670925 C29.5900496,25.5604079 29.1116297,25.0029092 28.3899212,24.4540366 C27.1964942,23.5464135 25.7293154,23 24,23 C22.2706846,23 20.8035058,23.5464135 19.6100788,24.4540366 C18.8883703,25.0029092 18.4099504,25.5604079 18.1538265,25.9670925 C17.8595098,26.4344212 17.9997638,27.0518568 18.4670925,27.3461735 C18.9344212,27.6404902 19.5518568,27.5002362 19.8461735,27.0329075 Z"
         id="Path-397"
         fill="#FFFFFF" />
      <path
         d="M16.7496064,22.1618839 C16.8011278,22.1035341 16.9325998,21.9736409 17.1437911,21.7953292 C17.5129304,21.4836599 17.9620074,21.168635 18.4909426,20.8726828 C20.0218116,20.0161239 21.8776609,19.5 24.0744629,19.5 C26.2680918,19.5 28.0918614,20.0143026 29.5730046,20.8667153 C30.0833757,21.1604388 30.5131462,21.4727977 30.8634448,21.7814983 C31.0629382,21.9573018 31.18542,22.0845539 31.2317787,22.1401844 C31.5853428,22.5644613 32.2159075,22.6217854 32.6401844,22.2682213 C33.0644613,21.9146572 33.1217854,21.2840925 32.7682213,20.8598156 C32.3842985,20.3991083 31.658098,19.7591443 30.5706111,19.1332847 C28.793774,18.1106974 26.6281789,17.5 24.0744629,17.5 C21.5239199,17.5 19.3345574,18.1088761 17.5143675,19.1273172 C16.403312,19.7489801 15.6518611,20.3834404 15.2503936,20.8381161 C14.8848452,21.2521123 14.9241199,21.884058 15.3381161,22.2496064 C15.7521123,22.6151548 16.384058,22.5758801 16.7496064,22.1618839 Z"
         id="path17"
         fill="#FFFFFF" />
    </g>
  </g>
</svg>

<svg xmlns="http://www.w3.org/2000/svg" xmlns:xlink="http://www.w3.org/1999/xlink" width="48" height="48"><g paint-order="markers stroke fill"><rect width="36" height="40" x="6" y="4" ry="1.905" rx="2" fill="#adc959"/><path d="M42 17.242A40 40 0 0 1 23.494 44H40c1.108 0 2-.85 2-1.904z" opacity=".15" fill="url(#a)"/></g><defs><linearGradient xlink:href="#b" id="a" gradientUnits="userSpaceOnUse" x1="32.747" y1="44" x2="32.747" y2="17.242"/><linearGradient id="b"><stop offset="0"/><stop offset="1" stop-opacity="0"/></linearGradient></defs><g fill="#FFF" fill-rule="evenodd"><circle cx="24" cy="30.5" r="2"/><path d="M19.846 27.033c.024-.038.095-.136.212-.272.208-.242.462-.486.763-.715C21.68 25.391 22.732 25 24 25c1.268 0 2.318.391 3.18 1.046.3.229.554.473.762.715.117.136.188.234.212.272a1 1 0 0 0 1.692-1.066c-.256-.407-.734-.964-1.456-1.513C27.196 23.546 25.73 23 24 23c-1.73 0-3.196.546-4.39 1.454-.722.549-1.2 1.106-1.456 1.513a1 1 0 0 0 1.692 1.066zM16.75 22.162c.051-.058.183-.188.394-.367.369-.311.818-.626 1.347-.922 1.53-.857 3.387-1.373 5.583-1.373 2.194 0 4.018.514 5.499 1.367.51.293.94.606 1.29.914.2.176.322.304.369.36a1 1 0 1 0 1.536-1.281c-.384-.46-1.11-1.1-2.197-1.727-1.777-1.022-3.943-1.633-6.497-1.633-2.55 0-4.74.609-6.56 1.627-1.11.622-1.862 1.256-2.264 1.711a1 1 0 1 0 1.5 1.324z"/></g></svg>
